brandFactory_export/2.Regular/Adjuntar_2Regular.svg

<?xml version="1.0" encoding="UTF-8"?>
<svg width="24px" height="24px" viewBox="0 0 24 24" version="1.1" xmlns="http://www.w3.org/2000/svg" xmlns:xlink="http://www.w3.org/1999/xlink">
    <title>2.Regular/Adjuntar_2Regular</title>
    <g id="Symbols" stroke="none" stroke-width="1" fill="none" fill-rule="evenodd">
        <g id="2.Regular/Adjuntar_2Regular" fill="#5CB615" fill-rule="nonzero">
            <path d="M12.4352941,23.6235294 C9,23.6235294 7.02689076,21.7478992 7.02689076,18.4739496 L7.02689076,3.78487395 C7.02689076,1.38151261 8.47563025,0 11,0 C13.5243697,0 14.9731092,1.37815126 14.9731092,3.78487395 L15.0033613,17.0487395 C15.0033613,18.4470588 14.092437,19.3142857 12.6268908,19.3142857 C11.1613445,19.3142857 10.2504202,18.4470588 10.2504202,17.0521008 L10.2504202,4.95462185 C10.2504202,4.54789916 10.5966387,4.22184874 11.0201681,4.22184874 C11.4470588,4.22184874 11.789916,4.5512605 11.789916,4.95462185 L11.789916,17.0487395 C11.789916,17.6436975 12.0016807,17.8420168 12.6235294,17.8420168 C13.2487395,17.8420168 13.4571429,17.6436975 13.4571429,17.0487395 L13.4235294,3.78487395 C13.4235294,2.20504202 12.6504202,1.46890756 10.9932773,1.46890756 C9.33613445,1.46890756 8.56302521,2.20504202 8.56302521,3.78487395 L8.56302521,18.4739496 C8.56302521,20.9512605 9.82689076,22.1546218 12.4285714,22.1546218 C15.0302521,22.1546218 16.2941176,20.9512605 16.2941176,18.4739496 L16.307563,4.8907563 C16.307563,4.48403361 16.6537815,4.15798319 17.0773109,4.15798319 C17.5042017,4.15798319 17.8470588,4.48739496 17.8470588,4.89411765 L17.8336134,18.4773109 C17.8436975,21.7478992 15.8705882,23.6235294 12.4352941,23.6235294" id="Path"></path>
        </g>
    </g>
</svg>

<svg width="24" height="24" viewBox="0 0 24 24" xmlns="http://www.w3.org/2000/svg"><path d="M12.435 23.624c-3.435 0-5.408-1.876-5.408-5.15V3.784C7.027 1.383 8.476 0 11 0s3.973 1.378 3.973 3.785l.03 13.264c0 1.398-.91 2.265-2.376 2.265-1.466 0-2.377-.867-2.377-2.262V4.955c0-.407.347-.733.77-.733.427 0 .77.33.77.733v12.094c0 .595.212.793.834.793.625 0 .833-.198.833-.793l-.033-13.264c0-1.58-.774-2.316-2.43-2.316-1.658 0-2.431.736-2.431 2.316v14.689c0 2.477 1.264 3.68 3.866 3.68 2.601 0 3.865-1.203 3.865-3.68l.014-13.583c0-.407.346-.733.77-.733.426 0 .77.33.77.736l-.014 13.583c.01 3.27-1.963 5.147-5.399 5.147" fill="#5CB615" fill-rule="nonzero"/></svg>
